X:843
T:Reel 843
M:4/4
K:Dmaj
L:1/8
d>D (3DDD F>A (3ABc |dfaf gfec|d>D (3DDD F>A (3ABc |dfed cABc|d2DD DD (3FED |dc (3dcd e2eg|fdec dBAG|FGEF D2|fg|afdf gbge|afdf ecAc|defg abag| (3fed ec d2 (3ABc |defg afbf| (3gfe  (3fed ec (3dcB |ABcd  (3efg fd|egfe d2|
